file/pertamina.svg

<svg clip-rule="evenodd" fill-rule="evenodd" stroke-linejoin="round" stroke-miterlimit="1.41421" viewBox="0 0 560 400" xmlns="http://www.w3.org/2000/svg"><g fill-rule="nonzero"><g fill="#082313" transform="matrix(.46337544368 0 0 .46337544368 152.1586872 170.17134928)"><path d="m162.94 54.397h26.16c7.286 0 13.163 1.782 17.631 5.345 4.469 3.53 7.654 8.186 7.654 13.968 0 3.798-.078 11.094-2.292 14.522-2.174 3.396-5.475 5.934-9.903 7.614-4.428 1.681-9.24 2.555-12.38 2.622l-11.264.202v21.934h-15.606zm15.364 14.122v17.145l9.551-.001c2.858 0 5.293-.857 7.306-2.571 2.053-1.715 3.079-3.748 3.079-6.102 0-2.689-1.147-4.773-3.441-6.252-2.295-1.479-4.679-2.22-8.905-2.22z"/><path d="m223.343 54.397h42.405v13.11h-26.893v12.028h26.095v14.243h-26.095v12.085h26.893v14.741h-42.405z"/><path d="m280.322 54.397h27.173c7.115 0 11.57 1.757 15.695 5.244 4.146 3.505 5.574 9.052 6.23 14.169.459 3.584.196 7.038-1.718 10.702-1.878 3.665-7.543 7.658-12.807 8.886l20.739 27.206h-18.8l-19.448-26.349h-1.733v26.349h-15.331zm15.439 12.89v17.098h5.533c7.981 0 11.972-3.986 11.972-10.07 0-6.792-7.279-6.993-11.756-7.028z"/><path d="m336.307 54.397h50.829v14.336h-17.327v51.871h-16.29v-51.871h-17.212z"/><path d="m406.247 54.397h16.245l22.384 66.207h-16.44l-4.271-11.936h-20.086l-5.044 11.936h-15.345zm7.925 21.297-7.301 20.488h13.533z"/><path d="m460.924 54.397h15.186l12.417 36.756 13.509-36.756h15.075l8.715 66.207h-14.94l-4.417-37.529-14.939 37.528h-6.152l-14.068-38.213-6.455 38.213-13.83.001z"/><path d="m535.983 54.397h15.722v66.207h-15.722z"/><path d="m610.736 54.76h14.339v65.844h-15.886l-27.68-39.217v39.217h-15.508v-65.844h14.813l29.922 40.749z"/><path d="m657.334 54.397h16.244l22.384 66.207h-16.439l-4.271-11.936h-20.086l-5.045 11.936h-15.344zm7.924 21.297-7.301 20.488h13.534z"/></g><g transform="matrix(.12614254711 0 0 .12614153065 249.42031562 277.86825124)"><path d="m-1300.71-260.578s192.53-306.249 223.9-357.018c31.37-50.778 58.39-55.547 145.058-55.547h191.015c-11.262 9.449-30.522 29.177-44.931 52.362l-194.278 312.6c-19.426 34.929-60.504 47.603-109.794 47.603z" fill="#006cb8"/><path d="m-540.165-673.143c-86.663 0-113.839 4.767-146.855 55.545-33.019 50.77-121.714 187.578-121.714 187.578h222.122c38.78 0 76.527-17.029 92.779-45.179l131.234-197.944z" fill="#acc42a"/><path d="m-631.168-974.065c86.663 0 113.839 4.768 146.855 55.546 33.019 50.769 121.714 187.578 121.714 187.578h-222.122c-38.78 0-76.527-17.03-92.779-45.18l-131.234-197.944z" fill="#ed1b2f"/></g></g></svg>

<?xml version="1.0" encoding="UTF-8" standalone="no"?>
<!DOCTYPE svg PUBLIC "-//W3C//DTD SVG 1.1//EN" "http://www.w3.org/Graphics/SVG/1.1/DTD/svg11.dtd">
<svg width="100%" height="100%" viewBox="0 0 560 400" version="1.1" xmlns="http://www.w3.org/2000/svg" xmlns:xlink="http://www.w3.org/1999/xlink" xml:space="preserve" xmlns:serif="http://www.serif.com/" style="fill-rule:evenodd;clip-rule:evenodd;stroke-linejoin:round;stroke-miterlimit:1.41421;">
    <g transform="matrix(1.27058,0,0,1.27058,938.851,654.242)">
        <g id="flowRoot4146" transform="matrix(0.364696,0,0,0.364696,-619.16,-380.984)">
            <path id="path4216" d="M162.94,54.397L189.1,54.397C196.386,54.397 202.263,56.179 206.731,59.742C211.2,63.272 214.385,67.928 214.385,73.71C214.385,77.508 214.307,84.804 212.093,88.232C209.919,91.628 206.618,94.166 202.19,95.846C197.762,97.527 192.95,98.401 189.81,98.468L178.546,98.67L178.546,120.604L162.94,120.604L162.94,54.397ZM178.304,68.519L178.304,85.664L187.855,85.663C190.713,85.663 193.148,84.806 195.161,83.092C197.214,81.377 198.24,79.344 198.24,76.99C198.24,74.301 197.093,72.217 194.799,70.738C192.504,69.259 190.12,68.518 185.894,68.518L178.304,68.519Z" style="fill:rgb(8,35,19);fill-rule:nonzero;"/>
            <path id="path4218" d="M223.343,54.397L265.748,54.397L265.748,67.507L238.855,67.507L238.855,79.535L264.95,79.535L264.95,93.778L238.855,93.778L238.855,105.863L265.748,105.863L265.748,120.604L223.343,120.604L223.343,54.397Z" style="fill:rgb(8,35,19);fill-rule:nonzero;"/>
            <path id="path4220" d="M280.322,54.397L307.495,54.397C314.61,54.397 319.065,56.154 323.19,59.641C327.336,63.146 328.764,68.693 329.42,73.81C329.879,77.394 329.616,80.848 327.702,84.512C325.824,88.177 320.159,92.17 314.895,93.398L335.634,120.604L316.834,120.604L297.386,94.255L295.653,94.255L295.653,120.604L280.322,120.604L280.322,54.397ZM295.761,67.287L295.761,84.385L301.294,84.385C309.275,84.385 313.266,80.399 313.266,74.315C313.266,67.523 305.987,67.322 301.51,67.287L295.761,67.287Z" style="fill:rgb(8,35,19);fill-rule:nonzero;"/>
            <path id="path4222" d="M336.307,54.397L387.136,54.397L387.136,68.733L369.809,68.733L369.809,120.604L353.519,120.604L353.519,68.733L336.307,68.733L336.307,54.397Z" style="fill:rgb(8,35,19);fill-rule:nonzero;"/>
            <path id="path4224" d="M406.247,54.397L422.492,54.397L444.876,120.604L428.436,120.604L424.165,108.668L404.079,108.668L399.035,120.604L383.69,120.604L406.247,54.397ZM414.172,75.694L406.871,96.182L420.404,96.182L414.172,75.694Z" style="fill:rgb(8,35,19);fill-rule:nonzero;"/>
            <path id="path4226" d="M460.924,54.397L476.11,54.397L488.527,91.153L502.036,54.397L517.111,54.397L525.826,120.604L510.886,120.604L506.469,83.075L491.53,120.603L485.378,120.603L471.31,82.39L464.855,120.603L451.025,120.604L460.924,54.397Z" style="fill:rgb(8,35,19);fill-rule:nonzero;"/>
            <rect id="path4228" x="535.983" y="54.397" width="15.722" height="66.207" style="fill:rgb(8,35,19);fill-rule:nonzero;"/>
            <path id="path4230" d="M610.736,54.76L625.075,54.76L625.075,120.604L609.189,120.604L581.509,81.387L581.509,120.604L566.001,120.604L566.001,54.76L580.814,54.76L610.736,95.509L610.736,54.76Z" style="fill:rgb(8,35,19);fill-rule:nonzero;"/>
            <path id="path4162" d="M657.334,54.397L673.578,54.397L695.962,120.604L679.523,120.604L675.252,108.668L655.166,108.668L650.121,120.604L634.777,120.604L657.334,54.397ZM665.258,75.694L657.957,96.182L671.491,96.182L665.258,75.694Z" style="fill:rgb(8,35,19);fill-rule:nonzero;"/>
        </g>
        <g id="g4271" transform="matrix(0.0992795,0,0,0.0992787,-542.611,-296.222)">
            <path id="path4265" d="M-1300.71,-260.578C-1300.71,-260.578 -1108.18,-566.827 -1076.81,-617.596C-1045.44,-668.374 -1018.42,-673.143 -931.752,-673.143L-740.737,-673.143C-751.999,-663.694 -771.259,-643.966 -785.668,-620.781L-979.946,-308.181C-999.372,-273.252 -1040.45,-260.578 -1089.74,-260.578L-1300.71,-260.578Z" style="fill:rgb(0,108,184);fill-rule:nonzero;"/>
            <path id="path4267" d="M-540.165,-673.143C-626.828,-673.143 -654.004,-668.376 -687.02,-617.598C-720.039,-566.828 -808.734,-430.02 -808.734,-430.02L-586.612,-430.02C-547.832,-430.02 -510.085,-447.049 -493.833,-475.199L-362.599,-673.143L-540.165,-673.143Z" style="fill:rgb(172,196,42);fill-rule:nonzero;"/>
            <path id="path4308" d="M-631.168,-974.065C-544.505,-974.065 -517.329,-969.297 -484.313,-918.519C-451.294,-867.75 -362.599,-730.941 -362.599,-730.941L-584.721,-730.941C-623.501,-730.941 -661.248,-747.971 -677.5,-776.121L-808.734,-974.065L-631.168,-974.065Z" style="fill:rgb(237,27,47);fill-rule:nonzero;"/>
        </g>
    </g>
</svg>
